build/img/sber.svg

<svg width="139" height="68" viewBox="0 0 139 68" fill="none" xmlns="http://www.w3.org/2000/svg">
<path d="M37.9179 54.3775V58.3029H45.3277V60.99H37.9179V65.0998H46.5888V67.7869H34.4495V51.6904H46.5888L42.9628 54.3775H37.9179ZM21.0752 54.3775V57.9604H25.2792C29.1155 57.9604 31.2175 59.6464 31.2175 62.7287C31.2175 65.9428 28.879 67.7869 24.8325 67.7869H17.6067V51.6904H31.4278L27.8018 54.3775H21.0752ZM21.0752 60.6476V65.0998H24.7012C26.8296 65.0998 27.9331 64.3885 27.9331 62.8869C27.9331 61.3852 26.9085 60.6476 24.7012 60.6476H21.0752ZM63.2739 57.4598C63.2739 61.0164 60.6463 63.2292 56.4422 63.2292H53.2891V67.7869H49.8208V51.6904H56.4159C60.6463 51.6904 63.2739 53.9034 63.2739 57.4598ZM59.7793 57.4598C59.7793 55.484 58.5706 54.3775 56.3372 54.3775H53.2629V60.5421H56.3372C58.5706 60.5421 59.7793 59.4357 59.7793 57.4598ZM11.6685 64.3093C10.7489 64.8099 9.72416 65.0734 8.6731 65.0734C5.54631 65.0734 3.28649 62.8341 3.28649 59.7518C3.28649 56.6695 5.54631 54.4302 8.6731 54.4302C9.80291 54.4039 10.9065 54.7727 11.8262 55.4313L14.3224 53.5872L14.1646 53.4292C12.7196 52.1382 10.7751 51.4796 8.56807 51.4796C6.17693 51.4796 3.99596 52.2963 2.41953 53.7716C0.842887 55.2996 -0.0504662 57.4335 0.00220512 59.6464C-0.0241821 61.8858 0.842887 64.0461 2.41953 65.6265C4.07491 67.181 6.28196 68.0503 8.54168 67.9977C11.0379 67.9977 13.2188 67.1283 14.6902 65.5475L12.4568 63.8879L11.6685 64.3093ZM95.882 51.7167L102.661 67.8132H99.0088L97.695 64.5728H90.3379L88.9452 67.8132H85.4504L92.361 51.7167H95.882ZM96.5913 61.8858L94.069 55.4313L91.3889 61.8858H96.5913ZM131.906 59.462L138.107 51.6904H134.14L128.989 58.5927H127.071V51.6904H123.603V67.7869H127.071V61.3061H129.226L134.533 67.7869H139L131.906 59.462ZM115.825 58.3292H108.442V51.7167H104.973V67.8132H108.442V61.2271H115.825V67.8132H119.294V51.7167H115.825V58.3292ZM84.1368 62.7551C84.1368 65.9692 81.7983 67.8132 77.7519 67.8132H70.526V51.7167H83.0595V54.4039H73.9945V57.9868H78.1985C82.0347 57.9868 84.1368 59.6728 84.1368 62.7551ZM80.8523 62.9132C80.8523 61.4115 79.8275 60.6738 77.6204 60.6738H73.9945V65.1261V65.1524H77.6204C79.775 65.1524 80.8523 64.4149 80.8523 62.9132ZM61.3485 15.712V21.8786L69.521 27.0314L88.9834 12.6288C88.2672 11.1082 87.4245 9.67219 86.4136 8.36282L69.4788 20.8226L61.3485 15.712ZM69.4789 42.8679C74.9868 42.8569 79.9986 40.7307 83.7905 37.2783L83.8438 37.3372C88.1407 33.4514 90.8791 27.7496 90.8791 21.4562C90.8791 20.1469 90.7526 18.8797 90.5421 17.6126L85.9504 21.0338C85.9504 21.1606 85.9504 21.3295 85.9504 21.4562C85.9504 26.0224 84.0738 30.1255 81.086 33.0939L81.0635 33.0713C78.1147 36.1122 74.0286 37.9285 69.4789 37.9285C64.9355 37.9285 60.8516 36.056 57.8927 33.0727L57.8941 33.0713C54.9032 30.1146 53.0496 26.0178 53.0496 21.4562C53.0496 16.9403 54.9174 12.8115 57.8932 9.84008C60.842 6.84125 64.9714 4.9839 69.4789 4.9839C69.7737 4.9839 70.0266 4.9839 70.3215 5.02616L70.3221 5.01406C73.4489 5.20564 76.3519 6.19072 78.7466 7.85597L82.9171 4.77273C79.2521 1.81616 74.5761 -6.10352e-05 69.4788 -6.10352e-05V0.044347C63.9821 0.0553209 58.9795 2.17296 55.1902 5.613L55.1559 5.57516C51.0726 9.2717 48.4749 14.5101 48.1794 20.3589L48.163 20.358C48.163 20.696 48.1208 21.076 48.1208 21.414C48.1208 21.4213 48.122 21.4284 48.122 21.4357C48.122 21.4427 48.1208 21.4493 48.1208 21.4562H48.123C48.1338 26.9674 50.2461 31.9831 53.6771 35.7823L53.6394 35.8167C57.3264 39.9106 62.5511 42.5149 68.3845 42.8113L68.3837 42.828C68.7206 42.828 69.0997 42.8701 69.4368 42.8701C69.4441 42.8701 69.4511 42.8689 69.4584 42.8689C69.4653 42.8689 69.472 42.8701 69.4789 42.8701V42.8679Z" fill="#5D5D5D"/>
</svg>

<?xml version="1.0" encoding="utf-8"?>
<!-- Generator: Adobe Illustrator 26.3.1, SVG Export Plug-In . SVG Version: 6.00 Build 0)  -->
<svg version="1.1" id="Слой_1" xmlns="http://www.w3.org/2000/svg" xmlns:xlink="http://www.w3.org/1999/xlink" x="0px" y="0px"
	 viewBox="0 0 139 68" style="enable-background:new 0 0 139 68;" xml:space="preserve">
<style type="text/css">
	.st0{fill:#FFCB3F;}
</style>
<path class="st0" d="M37.9,54.4v3.9h7.4V61h-7.4v4.1h8.7v2.7H34.4V51.7h12.1L43,54.4H37.9z M21.1,54.4V58h4.2c3.8,0,5.9,1.7,5.9,4.8
	c0,3.2-2.3,5.1-6.4,5.1h-7.2V51.7h13.8l-3.6,2.7H21.1z M21.1,60.6v4.5h3.6c2.1,0,3.2-0.7,3.2-2.2c0-1.5-1-2.2-3.2-2.2H21.1z
	 M63.3,57.5c0,3.6-2.6,5.8-6.8,5.8h-3.2v4.6h-3.5V51.7h6.6C60.6,51.7,63.3,53.9,63.3,57.5z M59.8,57.5c0-2-1.2-3.1-3.4-3.1h-3.1v6.2
	h3.1C58.6,60.5,59.8,59.4,59.8,57.5z M11.7,64.3c-0.9,0.5-1.9,0.8-3,0.8c-3.1,0-5.4-2.2-5.4-5.3c0-3.1,2.3-5.3,5.4-5.3
	c1.1,0,2.2,0.3,3.2,1l2.5-1.8l-0.2-0.2c-1.4-1.3-3.4-1.9-5.6-1.9c-2.4,0-4.6,0.8-6.1,2.3c-1.6,1.5-2.5,3.7-2.4,5.9
	c0,2.2,0.8,4.4,2.4,6c1.7,1.6,3.9,2.4,6.1,2.4c2.5,0,4.7-0.9,6.1-2.5l-2.2-1.7L11.7,64.3z M95.9,51.7l6.8,16.1H99l-1.3-3.2h-7.4
	l-1.4,3.2h-3.5l6.9-16.1H95.9z M96.6,61.9l-2.5-6.5l-2.7,6.5H96.6z M131.9,59.5l6.2-7.8h-4l-5.2,6.9h-1.9v-6.9h-3.5v16.1h3.5v-6.5
	h2.2l5.3,6.5h4.5L131.9,59.5z M115.8,58.3h-7.4v-6.6H105v16.1h3.5v-6.6h7.4v6.6h3.5V51.7h-3.5V58.3z M84.1,62.8
	c0,3.2-2.3,5.1-6.4,5.1h-7.2V51.7h12.5v2.7H74V58h4.2C82,58,84.1,59.7,84.1,62.8z M80.9,62.9c0-1.5-1-2.2-3.2-2.2H74v4.5v0h3.6
	C79.8,65.2,80.9,64.4,80.9,62.9z M61.3,15.7v6.2l8.2,5.2L89,12.6c-0.7-1.5-1.6-3-2.6-4.3L69.5,20.8L61.3,15.7z M69.5,42.9
	c5.5,0,10.5-2.1,14.3-5.6l0.1,0.1c4.3-3.9,7-9.6,7-15.9c0-1.3-0.1-2.6-0.3-3.8L86,21c0,0.1,0,0.3,0,0.4c0,4.6-1.9,8.7-4.9,11.6l0,0
	c-2.9,3-7,4.9-11.6,4.9c-4.5,0-8.6-1.9-11.6-4.9l0,0c-3-3-4.8-7.1-4.8-11.6c0-4.5,1.9-8.6,4.8-11.6C60.8,6.8,65,5,69.5,5
	c0.3,0,0.5,0,0.8,0l0,0c3.1,0.2,6,1.2,8.4,2.8l4.2-3.1C79.3,1.8,74.6,0,69.5,0v0C64,0.1,59,2.2,55.2,5.6l0,0
	c-4.1,3.7-6.7,8.9-7,14.8l0,0c0,0.3,0,0.7,0,1.1c0,0,0,0,0,0c0,0,0,0,0,0h0c0,5.5,2.1,10.5,5.6,14.3l0,0c3.7,4.1,8.9,6.7,14.7,7l0,0
	C68.7,42.8,69.1,42.9,69.5,42.9C69.4,42.9,69.5,42.9,69.5,42.9C69.5,42.9,69.5,42.9,69.5,42.9L69.5,42.9z"/>
</svg>
